src/images/documents/svg/file.svg

<svg fill="none" height="120" viewBox="0 0 80 120" width="80" xmlns="http://www.w3.org/2000/svg"><path d="m1 119v-118.000244h58.5858l19.4142 19.414244v98.586z" fill="#fff" stroke="#5e5e5e" stroke-width="2"/><g fill="#5e5e5e"><path d="m80 19.9998-20-20.00004414v20.00004414z"/><path d="m10 59.9998h59.9997v5h-59.9997z"/><path d="m10 69.9998h59.9997v5h-59.9997z"/><path d="m10 79.9998h30v5h-30z"/><path d="m10 27.9998h60v27h-60z"/></g><path d="m29.5154 35.5583v12.4415h-2.5635v-12.4415zm4.956 5.315v1.9995h-5.6567v-1.9995zm.5982-5.315v2.0081h-6.2549v-2.0081zm3.9306 3.1959v9.2456h-2.4694v-9.2456zm-2.6232-2.4097c0-.3589.1253-.6551.3759-.8887.2507-.2336.5868-.3503 1.0083-.3503.4159 0 .7491.1167.9998.3503.2563.2336.3845.5298.3845.8887s-.1282.6551-.3845.8887c-.2507.2335-.5839.3503-.9998.3503-.4215 0-.7576-.1168-1.0083-.3503-.2506-.2336-.3759-.5298-.3759-.8887zm7.2546-1.4697v13.125h-2.4695v-13.125zm6.2891 13.2959c-.7178 0-1.3615-.114-1.9312-.3418-.5697-.2336-1.0539-.5555-1.4526-.9656-.3931-.4102-.695-.8858-.9058-1.427-.2108-.5469-.3162-1.128-.3162-1.7432v-.3418c0-.7007.0997-1.3415.2991-1.9226.1994-.581.4842-1.0852.8545-1.5124.376-.4273.8317-.7548 1.3672-.9827.5355-.2336 1.1393-.3503 1.8115-.3503.6551 0 1.2362.1082 1.7432.3247.507.2164.9314.524 1.2732.9228.3475.3988.6095.8773.7861 1.4356.1766.5525.2649 1.1678.2649 1.8457v1.0254h-7.3486v-1.6407h4.9304v-.188c0-.3418-.0627-.6465-.188-.9143-.1196-.2734-.3019-.4899-.5469-.6494-.2449-.1595-.5582-.2392-.9399-.2392-.3247 0-.6039.0712-.8374.2136-.2336.1424-.4244.3418-.5725.5981-.1424.2564-.2507.5583-.3247.9058-.0684.3418-.1026.7178-.1026 1.1279v.3418c0 .3703.0513.7121.1538 1.0254.1083.3133.2592.5839.4529.8118.1994.2278.4387.4044.7178.5298.2848.1253.6067.1879.9656.1879.4443 0 .8573-.0854 1.239-.2563.3873-.1766.7206-.4415.9997-.7947l1.1963 1.2988c-.1937.2792-.4586.5469-.7947.8033-.3304.2563-.7291.4671-1.1962.6323-.4672.1595-.9998.2393-1.5979.2393z" fill="#fff"/></svg>

<svg width="80" height="120" viewBox="0 0 80 120" fill="none" xmlns="http://www.w3.org/2000/svg">
<path d="M1.00024 119V1H59.586L79.0002 20.4142V119H1.00024Z" fill="white" stroke="#0065BD" stroke-width="2"/>
<path d="M80.0005 20L60.0005 0V20H80.0005Z" fill="#0065BD"/>
<rect x="9.99976" y="60" width="59.9997" height="5" fill="#0065BD"/>
<rect x="9.99976" y="70" width="59.9997" height="5" fill="#0065BD"/>
<rect x="9.99976" y="80" width="30" height="5" fill="#0065BD"/>
<rect x="9.99976" y="28" width="60" height="27" fill="#0065BD"/>
<path d="M29.5151 35.5586V48H26.9517V35.5586H29.5151ZM34.4712 40.8735V42.873H28.8145V40.8735H34.4712ZM35.0693 35.5586V37.5667H28.8145V35.5586H35.0693ZM39 38.7544V48H36.5305V38.7544H39ZM36.3767 36.3447C36.3767 35.9858 36.502 35.6896 36.7527 35.4561C37.0033 35.2225 37.3394 35.1057 37.761 35.1057C38.1768 35.1057 38.5101 35.2225 38.7607 35.4561C39.0171 35.6896 39.1453 35.9858 39.1453 36.3447C39.1453 36.7036 39.0171 36.9998 38.7607 37.2334C38.5101 37.467 38.1768 37.5837 37.761 37.5837C37.3394 37.5837 37.0033 37.467 36.7527 37.2334C36.502 36.9998 36.3767 36.7036 36.3767 36.3447ZM43.6313 34.875V48H41.1619V34.875H43.6313ZM49.9204 48.1709C49.2026 48.1709 48.5589 48.057 47.9893 47.8291C47.4196 47.5955 46.9354 47.2737 46.5366 46.8635C46.1436 46.4534 45.8416 45.9777 45.6309 45.4365C45.4201 44.8896 45.3147 44.3086 45.3147 43.6934V43.3516C45.3147 42.6509 45.4144 42.01 45.6138 41.429C45.8132 40.8479 46.098 40.3438 46.4683 39.9165C46.8442 39.4893 47.3 39.1617 47.8354 38.9338C48.3709 38.7003 48.9748 38.5835 49.647 38.5835C50.3021 38.5835 50.8831 38.6917 51.3901 38.9082C51.8971 39.1247 52.3215 39.4323 52.6633 39.8311C53.0108 40.2298 53.2729 40.7083 53.4495 41.2666C53.6261 41.8192 53.7144 42.4344 53.7144 43.1123V44.1377H46.3657V42.4971H51.2961V42.3091C51.2961 41.9673 51.2335 41.6625 51.1082 41.3948C50.9885 41.1213 50.8062 40.9049 50.5613 40.7454C50.3163 40.5859 50.003 40.5061 49.6213 40.5061C49.2966 40.5061 49.0175 40.5773 48.7839 40.7197C48.5504 40.8621 48.3595 41.0615 48.2114 41.3179C48.069 41.5742 47.9608 41.8761 47.8867 42.2236C47.8184 42.5654 47.7842 42.9414 47.7842 43.3516V43.6934C47.7842 44.0636 47.8354 44.4054 47.938 44.7188C48.0462 45.0321 48.1972 45.3027 48.3909 45.5305C48.5903 45.7584 48.8295 45.935 49.1086 46.0603C49.3935 46.1856 49.7153 46.2483 50.0742 46.2483C50.5186 46.2483 50.9316 46.1628 51.3132 45.9919C51.7006 45.8153 52.0339 45.5505 52.313 45.1973L53.5093 46.4961C53.3156 46.7752 53.0507 47.043 52.7146 47.2993C52.3842 47.5557 51.9854 47.7664 51.5183 47.9316C51.0512 48.0911 50.5186 48.1709 49.9204 48.1709Z" fill="white"/>
</svg>
